src/assets/icons/angular.svg

<svg xmlns="http://www.w3.org/2000/svg" width="256" height="256" viewBox="0 0 256 256" fill="none">
<rect width="256" height="256" rx="60" fill="#242938"/>
<path d="M34.25 61.125L127.325 28L222.85 60.6125L207.412 183.7L127.325 228L48.5375 184.275L34.25 61.125Z" fill="#E23237"/>
<path d="M222.85 60.6125L127.325 28V228L207.412 183.7L222.85 60.6125Z" fill="#B52E31"/>
<path d="M127.469 51.375L69.4688 180.375L91.1125 179.937L102.8 150.788H154.675L167.375 180.163L188.012 180.6L127.469 51.375ZM127.612 92.7875L147.237 133.769H110.5L127.669 92.7875H127.612Z" fill="white"/>
</svg>

<svg xmlns="http://www.w3.org/2000/svg" width="256" height="256" fill="none"><rect width="256" height="256" rx="60" fill="#242938"/><path d="M34.25 61.125 127.325 28l95.525 32.612L207.412 183.7 127.325 228l-78.787-43.725L34.25 61.125z" fill="#E23237"/><path d="M222.85 60.612 127.325 28v200l80.087-44.3L222.85 60.613z" fill="#B52E31"/><path d="m127.469 51.375-58 129 21.644-.438 11.687-29.149h51.875l12.7 29.375 20.637.437-60.543-129.225zm.143 41.412 19.625 40.982H110.5l17.169-40.982h-.057z" fill="#fff"/></svg>
